X: 32
T: Chief O'Neill's
R:hornpipe
M:4/4
L:1/8
K:D
de | "D" fefg afge | fdec "(G)"dcAG |"D" FEFD (3EFG AB | "D7" =cAd^c "A" A2 de |
"D" fefg afge | fdec "(G)"dcAG |"D" FEFD "G" GBAG | "D" F2  D2 D2 :|
|: DE | "F" =F3G    FGAB |=cAdB cBAG | "D" Adde     fded | "A" cAdc    A2    de |
"D" fefg afge | fdec "(G)" dcAG | "D" FEFD "G" GBAG | "D" F2 D2 D2 :|


